X: 15003
T: Gentleman And His Stallion, The
R: waltz
M: 3/4
K: Dmajor
|:AD DA B/A/G/F/|AD DF AB|AD DA B/A/G/F/|GE EF GB:|
|:Dd dA F/G/A/F/|Dd dD FA|d/c/d/e/ f/e/d/c/ d/c/B/A/|Be eE GB:|
|:A2 B/A/G/F/ B/A/G/F/|A2 B/A/G/F/ Ad|A2 B/A/G/F/ B/A/G/F/|GE EF GB:|

